Pods/ProtonCore-UIFoundations/libraries/UIFoundations/Sources/Assets.xcassets/Images/IconSet/ic-arrow-left-and-up.imageset/ic-arrow-left-and-up.svg

<svg width="24" height="24" viewBox="0 0 24 24" fill="none" xmlns="http://www.w3.org/2000/svg">
<path d="M2.77695 8.66253C2.48406 8.95541 2.01071 8.95387 1.7197 8.65909C1.42869 8.36432 1.43022 7.88793 1.72312 7.59505L7.51236 1.80612C7.92054 1.39796 8.57954 1.39796 8.98773 1.80611L14.7767 7.59455C15.0696 7.88742 15.0711 8.36381 14.7801 8.65859C14.4891 8.95338 14.0157 8.95492 13.7228 8.66205L9.00005 3.93966V18.7448C9.00005 19.159 9.33583 19.4948 9.75005 19.4948H21V20.9948H9.75005C8.50741 20.9948 7.50005 19.9874 7.50005 18.7448V3.9397L2.77695 8.66253Z" fill="#0C0C14"/>
</svg>

<svg xmlns="http://www.w3.org/2000/svg" width="24" height="24" viewBox="0 0 24 24">
  <g class="ic-arrow-left-and-up">
    <path d="M2.778 8.663a.744.744 0 0 1-1.057-.004.756.756 0 0 1 .004-1.064l5.789-5.789a1.042 1.042 0 0 1 1.475 0l5.79 5.789a.757.757 0 0 1 .003 1.064.744.744 0 0 1-1.058.003L9.002 3.94v14.805c0 .414.335.75.75.75h11.25v1.5H9.752a2.25 2.25 0 0 1-2.25-2.25V3.94L2.778 8.663Z" class="Icon"/>
  </g>
</svg>
